app/images/icons/youtube.svg

<svg width="48" height="48" viewBox="0 0 48 48" fill="none" xmlns="http://www.w3.org/2000/svg">
<path d="M39.6812 30.3923C39.6812 30.3923 39.3688 32.5985 38.4062 33.5673C37.1875 34.8423 35.825 34.8485 35.2 34.9235C30.725 35.2485 24.0063 35.2485 24.0063 35.2485H23.9937C23.9937 35.2485 17.275 35.2485 12.8 34.9235C12.175 34.8485 10.8125 34.8423 9.59375 33.5673C8.63125 32.5985 8.325 30.3923 8.325 30.3923C8.325 30.3923 8 27.7985 8 25.211V22.786C8 20.1985 8.31875 17.6048 8.31875 17.6048C8.31875 17.6048 8.63125 15.3985 9.5875 14.4298C10.8063 13.1548 12.4063 13.1985 13.1188 13.061C15.6813 12.8173 24 12.7423 24 12.7423C24 12.7423 30.725 12.7548 35.2 13.0735C35.825 13.1485 37.1875 13.1548 38.4062 14.4298C39.3688 15.3985 39.6812 17.6048 39.6812 17.6048C39.6812 17.6048 40 20.1923 40 22.786V25.211C40 27.7985 39.6812 30.3923 39.6812 30.3923ZM20.6938 19.8423V28.836L29.3375 24.3235L20.6938 19.8423Z" fill="white"/>
</svg>

<svg width="48" height="48" fill="none" xmlns="http://www.w3.org/2000/svg"><path d="M39.681 30.392s-.312 2.207-1.275 3.175c-1.218 1.275-2.581 1.282-3.206 1.356-4.475.325-11.194.325-11.194.325h-.012s-6.719 0-11.194-.325c-.625-.075-1.988-.08-3.206-1.356-.963-.968-1.269-3.175-1.269-3.175S8 27.8 8 25.211v-2.425c0-2.588.319-5.181.319-5.181s.312-2.207 1.268-3.175c1.22-1.275 2.82-1.232 3.532-1.369C15.68 12.817 24 12.742 24 12.742s6.725.013 11.2.331c.625.075 1.987.082 3.206 1.357.963.969 1.275 3.175 1.275 3.175S40 20.192 40 22.786v2.425c0 2.588-.319 5.181-.319 5.181zm-18.987-10.55v8.994l8.643-4.512-8.643-4.482z" fill="#fff"/></svg>
